X:24
T:Boys of Kilsarne (reel), The   
B:CRE1.076 (Buachailli Chill Sairn)
S:Tommy Potts
F:file ID: cre.1/024boys_kil
M:C
L:1/8
Q:180
R:reel
K:G
D|G3B A3F|GBAG FDD2|DGGF GABc|d^cde fd=cA|
G3B A3F|GBAG FDD2|DGGF GABc|(3dcB (3cBA BGGA||
%B
(3BcB GB DBGB|AGFG ABcA|(3BcB GB DBGB|cAFG AGG2|
(3BcB GB GBdB|AGFG ABcA|B3c d^cde|fdcA BGBd||
%C
g2gf gdBd|cBAB cdef|g2gf gdBd|cedc BGGd|
g2gf gdBd|cBAB cdef|gb (3agf gedB|cedc BGAF|| HG8||

%%%

